X:1
T: Hanley's Strathspey
C:Bruce Shawyer
R:Strathspey
Q:128
K:G
M:4/4
L:1/16
|:g4|dB3 B3A G4 B3d|cA3 A3G =F8|dB3 B3A G3A B3d|cA3 A3G =F6z2|
dB3 B3A G4 B3d|cA3 A3G =F4 F3A|dB3 B3G c3A A3=F|AG3 G3=F G6z2|
Bd3 d3e g4 d3g|eg3 dg3 eg3 dg3|Bd3 d3e g4 d3g|=fc3 c3_B A6z2|
Bd3 d3e g4 d3g|eg3 dg3 eg3 dg3|dB3 B3G c3A A3=F|AG3 G3=F G4:|
